img/icon-payment/logo-discover.svg

<svg width="100" height="23" viewBox="0 0 100 23" fill="none" xmlns="http://www.w3.org/2000/svg">
<path fill-rule="evenodd" clip-rule="evenodd" d="M0 1.76538C0 1.50852 0.0375892 1.41455 0.332038 1.41455C1.83561 1.43335 3.33918 1.39576 4.84275 1.43961C7.05425 1.50852 9.05901 2.15381 10.6941 3.71376C11.8218 4.78506 12.5298 6.10068 12.8054 7.62931C13.363 10.6678 12.5047 13.2489 10.1867 15.3101C8.92119 16.4377 7.41135 17.0016 5.73863 17.1331C3.89675 17.2835 2.04862 17.1645 0.200476 17.202C-0.0187946 17.2083 0.00626478 17.0893 0.00626478 16.9515C0.00626478 15.3978 0.0125298 4.28387 0 1.76538ZM3.07606 14.2388C3.07606 14.4518 3.11991 14.5207 3.34544 14.5207C3.9594 14.5144 4.57963 14.5207 5.18732 14.4518C6.30247 14.3265 7.35497 14.007 8.1694 13.1863C9.54141 11.808 10.0489 10.1353 9.66671 8.24327C9.28455 6.33875 8.18193 4.9918 6.28367 4.4029C5.35647 4.11471 4.39168 4.13351 3.43315 4.12098C3.1575 4.11471 3.06353 4.1711 3.06979 4.47181C3.08858 6.08815 3.08232 12.6036 3.07606 14.2388Z" fill="#231F20"/>
<path fill-rule="evenodd" clip-rule="evenodd" d="M93.2653 10.5864C94.9192 12.7979 96.5418 14.9718 98.2083 17.2021C97.9514 17.2021 97.7447 17.2021 97.5442 17.2021C96.617 17.2021 95.6835 17.1896 94.7563 17.2084C94.4744 17.2147 94.3303 17.1082 94.1862 16.8889C92.8957 14.9593 91.5988 13.036 90.302 11.1064C90.2832 11.0813 90.2644 11.0563 90.2519 11.025C90.1704 10.8308 90.0076 10.8433 89.8572 10.8746C89.6943 10.9059 89.7695 11.0626 89.7695 11.1628C89.7632 13.0548 89.757 14.9405 89.7758 16.8325C89.7758 17.1457 89.688 17.2084 89.3936 17.2021C88.5792 17.1833 87.7647 17.1896 86.9503 17.2021C86.7436 17.2021 86.6621 17.1645 86.6621 16.9327C86.6684 11.8457 86.6684 6.76484 86.6621 1.67776C86.6621 1.50235 86.6809 1.41464 86.8939 1.41464C88.6481 1.45223 90.4022 1.34572 92.1501 1.47729C93.3655 1.57126 94.512 1.89703 95.4455 2.73026C96.5669 3.72638 96.8801 5.02947 96.8049 6.46413C96.6922 8.57539 95.5394 9.97246 93.4908 10.4924C93.4219 10.5238 93.3593 10.5551 93.2653 10.5864ZM89.7695 6.31377C89.7695 7.00917 89.782 7.71084 89.7632 8.40624C89.757 8.65057 89.8321 8.70069 90.0577 8.68816C90.515 8.66937 90.9723 8.6819 91.4297 8.63178C92.7704 8.48769 93.5284 7.71711 93.6287 6.37642C93.7101 5.29886 93.1588 4.47816 92.1314 4.13986C91.4547 3.92059 90.7593 3.93938 90.0639 3.92685C89.8384 3.92059 89.757 3.97071 89.7632 4.21504C89.7758 4.91671 89.7695 5.61211 89.7695 6.31377Z" fill="#231F20"/>
<path fill-rule="evenodd" clip-rule="evenodd" d="M75.9304 1.73439C75.9304 1.49632 75.9805 1.42114 76.2311 1.42114C78.9438 1.43367 81.6628 1.42741 84.3755 1.42114C84.5885 1.42114 84.6637 1.465 84.6574 1.69053C84.6449 2.42352 84.6449 3.15025 84.6574 3.88324C84.6637 4.10251 84.5822 4.13384 84.388 4.13384C82.709 4.12757 81.0238 4.1401 79.3448 4.12131C79.0566 4.12131 79.0002 4.20275 79.0065 4.47214C79.0253 5.4244 79.019 6.3704 79.0065 7.32266C79.0002 7.56072 79.0691 7.61711 79.3009 7.61711C80.9173 7.60458 82.5399 7.61711 84.1562 7.60458C84.4131 7.60458 84.4632 7.67976 84.4569 7.91782C84.4444 8.61949 84.4444 9.31489 84.4569 10.0166C84.4632 10.2358 84.4005 10.2922 84.1813 10.2859C82.5712 10.2734 80.9674 10.2922 79.3573 10.2734C79.0566 10.2734 79.0002 10.3674 79.0065 10.6368C79.019 11.8271 79.019 13.0174 79.0065 14.2078C79.0065 14.4458 79.0503 14.521 79.3072 14.521C80.9862 14.5085 82.6714 14.521 84.3504 14.5085C84.601 14.5085 84.6574 14.5774 84.6511 14.8155C84.6323 15.5359 84.6386 16.2564 84.6511 16.9768C84.6511 17.1523 84.6135 17.2086 84.4256 17.2086C81.669 17.2024 78.9125 17.2024 76.156 17.2086C75.9054 17.2086 75.9241 17.0896 75.9241 16.9205C75.9367 14.3769 75.9429 4.2466 75.9304 1.73439Z" fill="#231F20"/>
<path fill-rule="evenodd" clip-rule="evenodd" d="M20.5928 12.6412C21.0063 13.4181 21.5576 14.0508 22.3595 14.4079C23.224 14.7901 24.1199 14.9216 25.0158 14.5207C25.8302 14.1573 26.275 13.5058 26.3126 12.6161C26.3502 11.7391 25.8741 11.1502 25.116 10.768C24.2389 10.3295 23.2929 10.0726 22.3971 9.68419C21.52 9.30203 20.6867 8.86349 20.0853 8.08664C19.7157 7.61051 19.5089 7.06547 19.44 6.4891C19.1205 3.89544 20.5427 2.0473 22.6915 1.43334C24.9406 0.794323 26.9642 1.35816 28.7747 2.78029C28.9063 2.88679 28.9564 2.96197 28.8248 3.11859C28.3612 3.69496 27.9102 4.28386 27.4779 4.87902C27.3463 5.06071 27.2899 5.01059 27.1646 4.87902C26.6697 4.35277 26.1059 3.92676 25.3729 3.82026C24.4457 3.6887 23.5686 3.80773 22.9233 4.57205C22.3469 5.26118 22.4722 6.12574 23.2052 6.63946C23.8568 7.10306 24.6148 7.33486 25.3541 7.61678C26.0432 7.88617 26.7136 8.18061 27.3588 8.54398C28.6745 9.2895 29.3949 10.3796 29.4889 11.9145C29.6455 14.5019 28.286 16.6821 25.755 17.3336C23.0549 18.029 20.4111 17.2584 18.682 14.7024C18.6131 14.5959 18.6005 14.5332 18.7008 14.4392C19.3398 13.8566 19.96 13.2552 20.5928 12.6412Z" fill="#231F20"/>
<path fill-rule="evenodd" clip-rule="evenodd" d="M59.4033 1.42741C60.4746 1.42741 61.4958 1.43367 62.517 1.42114C62.7237 1.42114 62.7989 1.49006 62.8741 1.67174C63.8138 4.05239 66.5265 10.8748 66.9462 11.9273C67.1342 11.7143 69.8469 4.84177 71.1249 1.65921C71.175 1.53391 71.2126 1.42114 71.4006 1.42114C72.4468 1.42741 73.4868 1.42741 74.5769 1.42741C74.3263 2.02257 69.8594 12.629 67.8734 17.359C67.792 17.5469 67.7043 17.6096 67.5101 17.6033C67.1154 17.5908 66.7144 17.5908 66.3197 17.6033C66.1443 17.6096 66.0629 17.5469 66.0002 17.3841C64.7661 14.4145 60.4683 4.02107 59.5474 1.79704C59.5036 1.68427 59.4597 1.5715 59.4033 1.42741Z" fill="#231F20"/>
<path fill-rule="evenodd" clip-rule="evenodd" d="M42.6258 5.69381C42.0431 5.13623 41.4856 4.67263 40.8215 4.35939C38.2028 3.15027 35.0453 4.4471 34.0366 7.2287C33.2598 9.37129 33.5167 11.4074 35.0829 13.1427C36.1291 14.308 37.5074 14.7278 39.0485 14.7152C40.2702 14.7027 41.2788 14.2078 42.1747 13.4184C42.3063 13.2994 42.4316 13.1803 42.5631 13.0613C42.6759 13.124 42.6258 13.2179 42.6258 13.2868C42.632 14.3205 42.6258 15.3542 42.6321 16.388C42.6321 16.5446 42.607 16.6386 42.4378 16.72C39.2741 18.2424 35.2708 17.6409 32.7899 15.1037C31.255 13.5374 30.5032 11.6392 30.4531 9.44647C30.3717 5.73766 32.8463 2.50498 36.2795 1.46501C38.3907 0.825996 40.4519 0.951294 42.4378 1.94741C42.5443 2.00379 42.6258 2.04765 42.6258 2.198C42.6195 3.33821 42.6258 4.47842 42.6258 5.69381Z" fill="#231F20"/>
<path fill-rule="evenodd" clip-rule="evenodd" d="M17.4663 16.8574C17.4663 17.1142 17.4288 17.2207 17.1343 17.2082C16.3011 17.1832 15.4616 17.1957 14.6284 17.202C14.4279 17.202 14.3652 17.1518 14.3652 16.9451C14.3715 11.858 14.3715 6.77719 14.3652 1.69011C14.3652 1.45831 14.4404 1.41446 14.6534 1.42072C15.4804 1.43325 16.3011 1.43952 17.128 1.42072C17.4037 1.41446 17.4789 1.47711 17.4726 1.75903C17.4538 4.28377 17.4538 14.3514 17.4663 16.8574Z" fill="#231F20"/>
<path fill-rule="evenodd" clip-rule="evenodd" d="M98.7911 1.3208C98.1271 1.3208 97.582 1.86585 97.582 2.53619C97.582 3.20653 98.1208 3.75157 98.7911 3.75157C99.4615 3.75157 100 3.20653 100 2.53619C100 1.86585 99.4552 1.3208 98.7911 1.3208ZM98.7911 3.52604C98.2649 3.52604 97.8389 3.08123 97.8389 2.53619C97.8389 1.99114 98.2649 1.54634 98.7911 1.54634C99.3174 1.54634 99.7434 1.99114 99.7434 2.53619C99.7434 3.08123 99.3174 3.52604 98.7911 3.52604Z" fill="#252122"/>
<path fill-rule="evenodd" clip-rule="evenodd" d="M98.8973 2.66135C99.0477 2.86183 99.1918 3.05604 99.3421 3.25652C99.3171 3.25652 99.2983 3.25652 99.2795 3.25652C99.198 3.25652 99.1103 3.25652 99.0289 3.25652C99.0038 3.25652 98.9913 3.25025 98.9788 3.22519C98.8597 3.04978 98.747 2.87436 98.6279 2.70521L98.6217 2.69894C98.6154 2.68015 98.5966 2.68015 98.5841 2.68641C98.5716 2.68641 98.5778 2.70521 98.5778 2.71147C98.5778 2.88062 98.5778 3.04978 98.5778 3.22519C98.5778 3.25652 98.5716 3.25652 98.5402 3.25652C98.4651 3.25652 98.3961 3.25652 98.321 3.25652C98.3022 3.25652 98.2959 3.25652 98.2959 3.23146C98.2959 2.77412 98.2959 2.31052 98.2959 1.85318C98.2959 1.83439 98.2959 1.82812 98.3147 1.82812C98.4713 1.83439 98.6342 1.82186 98.7908 1.83439C98.9036 1.84065 99.0038 1.87198 99.0853 1.94716C99.1855 2.03487 99.2168 2.1539 99.2106 2.28546C99.198 2.47341 99.0978 2.60497 98.9099 2.64882C98.9099 2.65509 98.9036 2.65509 98.8973 2.66135ZM98.5778 2.27293C98.5778 2.33558 98.5778 2.39823 98.5778 2.46088C98.5778 2.48594 98.5841 2.48594 98.6029 2.48594C98.6467 2.48594 98.6843 2.48594 98.7282 2.47967C98.8472 2.46714 98.9161 2.39823 98.9287 2.27293C98.9349 2.17269 98.8848 2.10378 98.7908 2.07246C98.7282 2.05366 98.6655 2.05366 98.6029 2.05366C98.5841 2.05366 98.5778 2.05993 98.5778 2.07872C98.5778 2.14763 98.5778 2.21028 98.5778 2.27293Z" fill="#231F20"/>
<path d="M51.9421 17.6843C56.5473 17.6843 60.2806 13.937 60.2806 9.31446C60.2806 4.6919 56.5473 0.94458 51.9421 0.94458C47.3368 0.94458 43.6035 4.6919 43.6035 9.31446C43.6035 13.937 47.3368 17.6843 51.9421 17.6843Z" fill="url(#paint0_linear)"/>
<defs>
<linearGradient id="paint0_linear" x1="48.4092" y1="1.73697" x2="55.4787" y2="16.8976" gradientUnits="userSpaceOnUse">
<stop offset="0.3831" stop-color="#E35E26"/>
<stop offset="1" stop-color="#F9A121"/>
</linearGradient>
</defs>
</svg>

<svg width="100" height="23" fill="none" xmlns="http://www.w3.org/2000/svg"><path fill-rule="evenodd" clip-rule="evenodd" d="M0 1.765c0-.256.038-.35.332-.35 1.504.018 3.007-.02 4.51.025 2.212.069 4.217.714 5.852 2.274a7.002 7.002 0 012.111 3.915c.558 3.039-.3 5.62-2.618 7.681-1.266 1.128-2.776 1.692-4.448 1.823-1.842.15-3.69.032-5.539.069-.219.006-.194-.113-.194-.25C.006 15.397.013 4.284 0 1.764zM3.076 14.24c0 .213.044.282.27.282.613-.007 1.234 0 1.841-.07 1.115-.125 2.168-.444 2.982-1.265 1.372-1.378 1.88-3.05 1.498-4.943-.382-1.904-1.485-3.251-3.383-3.84-.928-.288-1.892-.27-2.85-.282-.276-.006-.37.05-.364.35.019 1.617.012 8.133.006 9.768zM93.265 10.586c1.654 2.212 3.277 4.386 4.943 6.616h-.664c-.927 0-1.86-.012-2.788.006-.282.007-.426-.1-.57-.32-1.29-1.929-2.587-3.852-3.884-5.782-.019-.025-.038-.05-.05-.081-.082-.194-.244-.182-.395-.15-.163.03-.088.188-.088.288-.006 1.892-.012 3.777.007 5.67 0 .313-.088.375-.382.37a63.581 63.581 0 00-2.444 0c-.206 0-.288-.038-.288-.27.006-5.087.006-10.168 0-15.255 0-.176.019-.263.232-.263 1.754.037 3.508-.07 5.256.062 1.215.094 2.362.42 3.295 1.253 1.122.996 1.435 2.3 1.36 3.734-.113 2.111-1.266 3.508-3.314 4.028-.07.032-.132.063-.226.094zM89.77 6.314c0 .695.013 1.397-.006 2.092-.006.245.07.295.295.282.457-.019.914-.006 1.372-.056 1.34-.144 2.098-.915 2.199-2.256.081-1.077-.47-1.898-1.498-2.236-.676-.22-1.372-.2-2.067-.213-.226-.006-.307.044-.3.288.012.702.005 1.397.005 2.099zM75.93 1.734c0-.238.05-.313.301-.313 2.713.013 5.432.006 8.145 0 .212 0 .288.044.281.27-.012.733-.012 1.46 0 2.192.007.22-.075.25-.269.25-1.679-.005-3.364.007-5.043-.012-.288 0-.345.082-.338.351.018.952.012 1.898 0 2.85-.007.239.062.295.294.295 1.616-.012 3.239 0 4.855-.012.257 0 .307.075.3.313a58.736 58.736 0 000 2.099c.007.219-.056.275-.275.269-1.61-.013-3.214.006-4.824-.013-.3 0-.357.094-.35.364.012 1.19.012 2.38 0 3.57 0 .239.043.314.3.314 1.68-.013 3.364 0 5.043-.013.251 0 .307.07.301.308-.019.72-.012 1.44 0 2.16 0 .176-.037.233-.225.233-2.757-.007-5.514-.007-8.27 0-.25 0-.232-.12-.232-.288.013-2.544.019-12.674.006-15.187zM20.593 12.641c.413.777.965 1.41 1.767 1.767.864.382 1.76.514 2.656.113.814-.364 1.259-1.015 1.297-1.905.037-.877-.439-1.466-1.197-1.848-.877-.439-1.823-.695-2.719-1.084-.877-.382-1.71-.82-2.312-1.597a3.187 3.187 0 01-.645-1.598c-.32-2.594 1.103-4.442 3.252-5.056 2.249-.639 4.272-.075 6.083 1.347.131.107.181.182.05.339a45.153 45.153 0 00-1.347 1.76c-.132.182-.188.132-.313 0-.495-.526-1.06-.952-1.792-1.059-.927-.131-1.804-.012-2.45.752-.576.69-.45 1.554.282 2.067.652.464 1.41.696 2.15.978.688.27 1.359.564 2.004.927 1.315.745 2.036 1.836 2.13 3.37.156 2.588-1.203 4.768-3.734 5.42-2.7.695-5.344-.076-7.073-2.632-.069-.106-.081-.169.019-.263a84.007 84.007 0 001.892-1.798zM59.403 1.427c1.072 0 2.093.007 3.114-.006.207 0 .282.07.357.25.94 2.381 3.652 9.204 4.072 10.256.188-.213 2.9-7.085 4.179-10.268.05-.125.088-.238.276-.238 1.046.006 2.086.006 3.176.006-.25.596-4.718 11.202-6.704 15.932-.081.188-.169.25-.363.244a18.899 18.899 0 00-1.19 0c-.176.007-.257-.056-.32-.219-1.234-2.97-5.532-13.363-6.453-15.587l-.144-.37zM42.626 5.694c-.583-.558-1.14-1.021-1.804-1.335-2.62-1.209-5.777.088-6.785 2.87-.777 2.142-.52 4.178 1.046 5.914 1.046 1.165 2.424 1.585 3.965 1.572 1.222-.012 2.23-.507 3.127-1.297.131-.119.257-.238.388-.357.113.063.063.157.063.226.006 1.033 0 2.067.006 3.101 0 .157-.025.25-.194.332-3.164 1.522-7.167.92-9.648-1.616-1.535-1.567-2.287-3.465-2.337-5.658-.081-3.708 2.393-6.941 5.826-7.981 2.112-.639 4.173-.514 6.159.482.106.057.188.1.188.251-.006 1.14 0 2.28 0 3.496zM17.466 16.857c0 .257-.037.364-.332.351-.833-.025-1.672-.012-2.506-.006-.2 0-.263-.05-.263-.257.006-5.087.006-10.168 0-15.255 0-.232.075-.276.288-.27.827.013 1.648.02 2.475 0 .276-.006.35.057.345.339-.02 2.525-.02 12.592-.007 15.098z" fill="#231F20"/><path fill-rule="evenodd" clip-rule="evenodd" d="M98.791 1.32a1.215 1.215 0 000 2.432c.67 0 1.209-.545 1.209-1.216 0-.67-.545-1.215-1.209-1.215zm0 2.206c-.526 0-.952-.445-.952-.99 0-.545.426-.99.952-.99s.952.445.952.99c0 .545-.426.99-.952.99z" fill="#252122"/><path fill-rule="evenodd" clip-rule="evenodd" d="M98.897 2.661l.445.596h-.313c-.025 0-.038-.007-.05-.032-.12-.175-.232-.35-.351-.52l-.006-.006c-.007-.019-.025-.019-.038-.013-.012 0-.006.02-.006.025v.514c0 .032-.006.032-.038.032h-.219c-.019 0-.025 0-.025-.026V1.853c0-.019 0-.025.019-.025.156.006.32-.006.476.006a.453.453 0 01.294.113c.1.088.132.207.126.338-.013.188-.113.32-.301.364 0 .006-.006.006-.013.012zm-.32-.388v.188c0 .025.007.025.026.025.044 0 .081 0 .125-.006.12-.013.188-.082.2-.207.007-.1-.043-.17-.137-.2-.063-.02-.126-.02-.188-.02-.019 0-.025.007-.025.026v.194z" fill="#231F20"/><path d="M51.942 17.684c4.605 0 8.339-3.747 8.339-8.37 0-4.622-3.734-8.37-8.339-8.37s-8.339 3.748-8.339 8.37c0 4.623 3.734 8.37 8.34 8.37z" fill="url(#paint0_linear)"/><defs><linearGradient id="paint0_linear" x1="48.409" y1="1.737" x2="55.479" y2="16.898" gradientUnits="userSpaceOnUse"><stop offset=".383" stop-color="#E35E26"/><stop offset="1" stop-color="#F9A121"/></linearGradient></defs></svg>
